src/main/resources/pixelj/resources/svg/light/pxf_help.svg

<?xml version="1.0" encoding="UTF-8" standalone="no"?>
<!DOCTYPE svg PUBLIC "-//W3C//DTD SVG 1.1//EN" "http://www.w3.org/Graphics/SVG/1.1/DTD/svg11.dtd">
<svg width="100%" height="100%" viewBox="0 0 16 16" version="1.1" xmlns="http://www.w3.org/2000/svg" xmlns:xlink="http://www.w3.org/1999/xlink" xml:space="preserve" xmlns:serif="http://www.serif.com/" style="fill-rule:evenodd;clip-rule:evenodd;stroke-linejoin:round;stroke-miterlimit:2;">
    <g id="light">
        <g id="green">
        </g>
        <g id="red">
        </g>
        <g id="gray">
        </g>
        <g id="yellow">
            <path d="M8,1c3.863,0 7,3.137 7,7c0,3.863 -3.137,7 -7,7c-3.863,0 -7,-3.137 -7,-7c0,-3.863 3.137,-7 7,-7Zm0,10.5c0.404,0 0.733,0.328 0.733,0.733c-0,0.404 -0.329,0.732 -0.733,0.732c-0.404,0 -0.733,-0.328 -0.733,-0.732c0,-0.405 0.329,-0.733 0.733,-0.733Zm-2,-5.965l0,-0c0,-0 0.041,0.003 0.102,-0.011c0.145,-0.03 0.275,-0.124 0.345,-0.266l0.001,-0.002c0.076,-0.132 0.557,-0.721 2.052,-0.721c0.807,-0 1.5,0.693 1.5,1.5c0,0.948 -0.784,1.305 -1.368,1.639c-0.34,0.194 -0.64,0.382 -0.83,0.591c-0.197,0.216 -0.302,0.457 -0.302,0.735l0,1c0,0.276 0.224,0.5 0.5,0.5c0.276,-0 0.5,-0.224 0.5,-0.5l0,-1c0,-0.034 0.031,-0.053 0.057,-0.079c0.037,-0.036 0.08,-0.071 0.127,-0.105c0.225,-0.164 0.526,-0.314 0.825,-0.496c0.762,-0.462 1.491,-1.099 1.491,-2.285c0,-1.345 -1.155,-2.5 -2.5,-2.5c-2.44,-0 -2.954,1.29 -2.954,1.29c-0.116,0.251 -0.006,0.548 0.244,0.664c0.068,0.031 0.14,0.046 0.21,0.046Z" style="fill:rgb(229,115,26);"/>
        </g>
        <g id="icon">
        </g>
    </g>
    <g id="menu">
    </g>
</svg>

<?xml version="1.0" encoding="UTF-8" standalone="no"?>
<!DOCTYPE svg PUBLIC "-//W3C//DTD SVG 1.1//EN" "http://www.w3.org/Graphics/SVG/1.1/DTD/svg11.dtd">
<svg width="100%" height="100%" viewBox="0 0 16 16" version="1.1" xmlns="http://www.w3.org/2000/svg" xmlns:xlink="http://www.w3.org/1999/xlink" xml:space="preserve" xmlns:serif="http://www.serif.com/" style="fill-rule:evenodd;clip-rule:evenodd;stroke-linejoin:round;stroke-miterlimit:2;">
    <g id="green">
    </g>
    <g id="red">
    </g>
    <g id="gray">
    </g>
    <g id="yellow">
        <path d="M8,1C11.863,1 15,4.137 15,8C15,11.863 11.863,15 8,15C4.137,15 1,11.863 1,8C1,4.137 4.137,1 8,1ZM8,11.5C8.404,11.5 8.733,11.828 8.733,12.233C8.733,12.637 8.404,12.965 8,12.965C7.596,12.965 7.267,12.637 7.267,12.233C7.267,11.828 7.596,11.5 8,11.5ZM6,5.535L6,5.535C6,5.535 6.041,5.538 6.102,5.524C6.247,5.494 6.377,5.4 6.447,5.258L6.448,5.256C6.524,5.124 7.005,4.535 8.5,4.535C9.307,4.535 10,5.228 10,6.035C10,6.983 9.216,7.34 8.632,7.674C8.292,7.868 7.992,8.056 7.802,8.265C7.605,8.481 7.5,8.722 7.5,9L7.5,10C7.5,10.276 7.724,10.5 8,10.5C8.276,10.5 8.5,10.276 8.5,10L8.5,9C8.5,8.966 8.531,8.947 8.557,8.921C8.594,8.885 8.637,8.85 8.684,8.816C8.909,8.652 9.21,8.502 9.509,8.32C10.271,7.858 11,7.221 11,6.035C11,4.69 9.845,3.535 8.5,3.535C6.06,3.535 5.546,4.825 5.546,4.825C5.43,5.076 5.54,5.373 5.79,5.489C5.858,5.52 5.93,5.535 6,5.535Z" style="fill:rgb(229,115,26);"/>
    </g>
    <g id="icon">
    </g>
</svg>
